!!!OTL: Cange
!!!ARE: Asia, China,ÿZhejiang Deqing
!! III, 611, 2)
!!!SCT: C2067
!!!YEM: Copyright 1995, estate of Helmut Schaffrath.
**kern
*ICvox
*Ivox
*M2/4
*k[b-]
*F:
{8a
16a
16g
8a
8cc
=1
8ff
4dd
16dd
16cc
=2
8a
8cc
8dd
8ff
=3
16cc
16dd
16cc
16g
4a}
=4
{8.a
16cc
8dd
8ff
=5
8cc
16dd
16ff
8cc
8a
=6
8g
8cc
8cc
8f
=7
8g
16a
16cc
4g}
=8
{8cc
8dd
8cc
8a
=9
8g
8cc
8g
8a
=10
8d
8f
8cc
8a
=11
8cc
8f
4g}
=12
{8ff
8ff
8dd
8ff
=13
8cc
8ff
8dd
8cc
=14
4.a
16dd
16cc
=15
4.a
8r}
==
!!!AGN: Xiaodiao
!!!AMT: simple duple
!!!AIN: vox
!!!EED: Helmut Schaffrath
!!!EEV: 1.0
*-
